!!!SOCIAL_FUNCTION:	miscellaneous songs
!!!PDT:	1957
!!!OTL: No_5_Song_to_the_Wild_Animals.krn
!!!LING_GROUP: Keresan
!!!LANG: Tone
!!!REG: Southwest
**kern
*staff1
=1-
*clefF4
*k[b-e-a-d-]
*M2/4
4.r
8A-\
=2!|:
8e-\L
8e-\J
8e-\L
8e-\J
=3
8B-\L
8B-\J
8e-\L
8B-\J
=4
*M3/4
8B-\L
8B-\J
8B-\L
8A-\J
8A-\L
8A-\J
=5
8e-\L
8e-\J
8B-\L
8B-\J
8e-\L
8B-\J
=6
8B-\L
8B-\J
8B-\L
8A-\J
8B-\L
8B-\J
=7
8e-\L
8B-\J
8B-\L
8A-\J
8B-\L
8A-\J
=8
*M2/4
8A-\
8r
8A-\L
8A-\J
=9
8e-\L
8e-\J
8e-\L
8e-\J
=10
8B-\L
8B-\J
8e-\L
8B-\J
=11
*M3/4
8B-\L
8B-\J
8B-\L
8A-\J
8A-\
8r
=12
*M2/4
4e-\
8B-\L
8B-\J
=13
8e-\L
8B-\J
8B-\L
8B-\J
=14
8B-\L
8A-\J
8B-\L
8B-\J
=15
8e-\L
8B-\J
8B-\L
8A-\J
=16
8B-\L
8A-\J
8A-\L
8A-\J
=17
8A-\L
8A-\J
8A-\
8r
=18
*M6/8
8e-\L
8B-\
8B-\J
8A-\L
8A-\
8A-\J
=19
8B-\L
8B-\
8B-\J
8A-\L
8A-\
8A-\J
=20
16d-\LL
16B-\J
8B-\
8B-\J
8A-\L
8A-\
8A-\J
=21
*M7/8
8B-\L
8B-\
8B-\
8A-\
8A-\J
8r
8B-\
=22
*M6/8
8B-\L
8B-\
8A-\J
16B-\LL
16A-\J
8A-\
8A-\J
=23
*M3/8
8A-\L
8A-\
8d-\J
=24
*M5/8
8B-\L
8B-\
8A-\
8A-\
8A-\J
=25
*M6/8
8B-\L
8B-\
8B-\J
8A-\L
8A-\J
8r
=26
*M7/8
8B-\L
8B-\
8B-\
8A-\
8A-\
8A-\
8B-\J
=27
8B-\L
8B-\
8A-\
16B-\L
16A-\J
8A-\
8A-\
8A-\J
=28
*M5/8
8A-\L
8A-\
8A-\J
8r
8A-\
=29:|!
=
*M7/8
8A-\L
8A-\
8A-\J
2r
==
*-
